X:114
T: DIE MAID SIE WOLT NEN BUHLEN WERT
N: Z0114
O: Europa, Mitteleuropa, Deutschland, Nord - Deutschland
R: Sagen - Lied, Romanze, Tod
M: 2/4
L: 1/8
K: G
D | G2B2 | A2d2 | ^cdec | A2z
B | cccc | BBBB | ABAB | ABA
A | ABAF | G2z

